_src/assets/icons/original/viadeo.svg

<svg xmlns="http://www.w3.org/2000/svg" preserveAspectRatio="xMidYMid" width="88" height="100" viewBox="0 0 88 100"><defs><style>.cls-2 { fill: #d9d9d9; }</style></defs><path d="M.008 63.3c0 9.8 3.368 18.367 10.104 25.7 6.736 7.333 15.405 11 26.009 11 10.538 0 19.174-3.667 25.91-11 6.736-7.2 10.104-15.767 10.104-25.7 0-5.2-.9-10.067-2.701-14.6-2.668 1.667-5.502 2.8-8.503 3.4 1.467 3.4 2.201 7.2 2.201 11.4 0 5.067-1.201 9.8-3.602 14.2-2.467 4.4-5.769 7.767-9.903 10.1-4.135 2.4-8.637 3.6-13.506 3.6-5.001 0-9.536-1.2-13.605-3.6-4.201-2.467-7.469-5.833-9.803-10.1-2.468-4.333-3.702-9.067-3.702-14.2 0-7.8 2.668-14.533 8.003-20.2 5.336-5.533 11.705-8.3 19.107-8.3 3.402 0 6.67.633 9.804 1.9.267-2.6 1.167-5.467 2.701-8.6-3.801-1.4-7.969-2.1-12.505-2.1-10.67 0-19.54 3.933-26.61 11.8-6.335 7.133-9.503 15.567-9.503 25.3zm28.01 25.3l5.603.4c4.935-3.133 9.086-6.767 12.454-10.9 3.368-4.133 5.786-8.267 7.253-12.4 1.467-4.133 2.501-8.333 3.101-12.6.4-2.733.6-5.4.6-8 0-1.4-.066-2.733-.2-4-.333-3.667-.75-6.95-1.25-9.85-.5-2.9-1.017-5.183-1.551-6.85l-.9-2.5c-1.467-4.533-2.918-8.5-4.352-11.9-1.434-3.4-2.484-5.633-3.151-6.7l-1.1-1.7c2.601 1.333 4.701 2.933 6.302 4.8 1.534 1.933 2.468 3.7 2.801 5.3.267 1.333.4 2.633.4 3.9v.7c-.066 1.467-.267 2.633-.6 3.5l-.5 1.3c.267 3.867.433 7.6.5 11.2 0 3.467-.167 6.867-.5 10.2-.6 6.667-1.617 12.233-3.051 16.7-1.434 4.467-3.085 8.517-4.952 12.15-1.868 3.633-3.785 6.483-5.752 8.55-1.968 2.067-3.785 3.783-5.452 5.15-1.668 1.367-3.035 2.317-4.102 2.85l-1.601.7zm27.511-63.7c.267-2.667 1.034-4.8 2.301-6.4l1.8-2.5c.801-.933 2.101-1.817 3.902-2.65 1.801-.833 3.401-1.45 4.802-1.85l2.1-.6c2.401-.533 4.619-1.7 6.653-3.5s3.485-3.5 4.352-5.1l1.3-2.3c2.734 3.8 4.368 8.1 4.902 12.9.267 2.133.367 4.033.3 5.7 0 2.267-.2 4.233-.6 5.9l-1.101 4.5c-.8 2.2-1.917 4.2-3.351 6-1.434 1.8-2.651 3.033-3.651 3.7l-1.501 1.1c-2.267 1.333-4.501 2-6.702 2l-10.904-5.3c3.868-2.133 7.236-4.3 10.103-6.5 2.868-2.2 4.986-4.117 6.353-5.75s2.467-3.117 3.301-4.45c.834-1.333 1.317-2.367 1.451-3.1l.2-1c-1.201 2.667-2.818 5.1-4.852 7.3-2.034 2.2-4.102 3.933-6.203 5.2-2.1 1.267-4.118 2.35-6.052 3.25-1.934.9-3.501 1.517-4.702 1.85l-1.8.5c-1.668-2.933-2.501-5.567-2.501-7.9 0-.333.033-.667.1-1z" id="path-1" class="cls-2" fill-rule="evenodd"/></svg>

<svg xmlns="http://www.w3.org/2000/svg" xmlns:xlink="http://www.w3.org/1999/xlink" preserveAspectRatio="xMidYMid" width="88" height="100" viewBox="0 0 88 100">
  <defs>
    <style>

      .cls-2 {
        fill: #d9d9d9;
      }
    </style>
  </defs>
  <path d="M0.008,63.300 C0.008,73.100 3.376,81.667 10.112,89.000 C16.848,96.333 25.517,100.000 36.121,100.000 C46.659,100.000 55.295,96.333 62.031,89.000 C68.767,81.800 72.135,73.233 72.135,63.300 C72.135,58.100 71.235,53.233 69.434,48.700 C66.766,50.367 63.932,51.500 60.931,52.100 C62.398,55.500 63.132,59.300 63.132,63.500 C63.132,68.567 61.931,73.300 59.530,77.700 C57.063,82.100 53.761,85.467 49.627,87.800 C45.492,90.200 40.990,91.400 36.121,91.400 C31.120,91.400 26.585,90.200 22.516,87.800 C18.315,85.333 15.047,81.967 12.713,77.700 C10.245,73.367 9.011,68.633 9.011,63.500 C9.011,55.700 11.679,48.967 17.014,43.300 C22.350,37.767 28.719,35.000 36.121,35.000 C39.523,35.000 42.791,35.633 45.925,36.900 C46.192,34.300 47.092,31.433 48.626,28.300 C44.825,26.900 40.657,26.200 36.121,26.200 C25.451,26.200 16.581,30.133 9.511,38.000 C3.176,45.133 0.008,53.567 0.008,63.300 ZM28.018,88.600 C28.018,88.600 33.621,89.000 33.621,89.000 C38.556,85.867 42.707,82.233 46.075,78.100 C49.443,73.967 51.861,69.833 53.328,65.700 C54.795,61.567 55.829,57.367 56.429,53.100 C56.829,50.367 57.029,47.700 57.029,45.100 C57.029,43.700 56.963,42.367 56.829,41.100 C56.496,37.433 56.079,34.150 55.579,31.250 C55.079,28.350 54.562,26.067 54.028,24.400 C54.028,24.400 53.128,21.900 53.128,21.900 C51.661,17.367 50.210,13.400 48.776,10.000 C47.342,6.600 46.292,4.367 45.625,3.300 C45.625,3.300 44.525,1.600 44.525,1.600 C47.126,2.933 49.226,4.533 50.827,6.400 C52.361,8.333 53.295,10.100 53.628,11.700 C53.895,13.033 54.028,14.333 54.028,15.600 C54.028,15.600 54.028,16.300 54.028,16.300 C53.962,17.767 53.761,18.933 53.428,19.800 C53.428,19.800 52.928,21.100 52.928,21.100 C53.195,24.967 53.361,28.700 53.428,32.300 C53.428,35.767 53.261,39.167 52.928,42.500 C52.328,49.167 51.311,54.733 49.877,59.200 C48.443,63.667 46.792,67.717 44.925,71.350 C43.057,74.983 41.140,77.833 39.173,79.900 C37.205,81.967 35.388,83.683 33.721,85.050 C32.053,86.417 30.686,87.367 29.619,87.900 C29.619,87.900 28.018,88.600 28.018,88.600 ZM55.529,24.900 C55.796,22.233 56.563,20.100 57.830,18.500 C57.830,18.500 59.630,16.000 59.630,16.000 C60.431,15.067 61.731,14.183 63.532,13.350 C65.333,12.517 66.933,11.900 68.334,11.500 C68.334,11.500 70.434,10.900 70.434,10.900 C72.835,10.367 75.053,9.200 77.087,7.400 C79.121,5.600 80.572,3.900 81.439,2.300 C81.439,2.300 82.739,-0.000 82.739,-0.000 C85.473,3.800 87.107,8.100 87.641,12.900 C87.908,15.033 88.008,16.933 87.941,18.600 C87.941,20.867 87.741,22.833 87.341,24.500 C87.341,24.500 86.240,29.000 86.240,29.000 C85.440,31.200 84.323,33.200 82.889,35.000 C81.455,36.800 80.238,38.033 79.238,38.700 C79.238,38.700 77.737,39.800 77.737,39.800 C75.470,41.133 73.236,41.800 71.035,41.800 C71.035,41.800 60.131,36.500 60.131,36.500 C63.999,34.367 67.367,32.200 70.234,30.000 C73.102,27.800 75.220,25.883 76.587,24.250 C77.954,22.617 79.054,21.133 79.888,19.800 C80.722,18.467 81.205,17.433 81.339,16.700 C81.339,16.700 81.539,15.700 81.539,15.700 C80.338,18.367 78.721,20.800 76.687,23.000 C74.653,25.200 72.585,26.933 70.484,28.200 C68.384,29.467 66.366,30.550 64.432,31.450 C62.498,32.350 60.931,32.967 59.730,33.300 C59.730,33.300 57.930,33.800 57.930,33.800 C56.262,30.867 55.429,28.233 55.429,25.900 C55.429,25.567 55.462,25.233 55.529,24.900 Z" id="path-1" class="cls-2" fill-rule="evenodd"/>
</svg>
